X:366
T:Bolt the door
C:anon.
O:Ireland
B:Francis O'Neill: "The Dance Music of Ireland" (1907) no. 366
R:Single jig
M:6/8
L:1/8
K:Am
g2f|:ecA A2B|G2E E2B|c2A B2G|A2B c2d|ecA A2B|G2E E2B|c2A B2G|ABA A2 H:|
||B|cBA G2B|e3 d2B|c2A B2G|A2B c2d|ecA A2d|e3 d2B|c2A B2A|G3 g2e|
dBG G2d|e3 d2B|c2A B2G|A2B c2d|ecA A2d|e2a a2^f|g2e d2B|A3"_D.C."|]
